modules/gdextensions/icons/icon_spider.svg

<svg enable-background="new 0 0 1000 1000" height="16" viewBox="0 0 16 16" width="16" xmlns="http://www.w3.org/2000/svg"><path d="m2.6718526.1790743c-.1747945.18199965-.2120994.2824189-.1809849.53961013.00619.06274154.3057685.71538477.6677384 1.43699457.6490046 1.3052864.6613855 1.3241253 1.4913749 2.2904761.4618294.5396102.8299898 1.0040288.8174461 1.0417065-.012543.037678-.3494262.0689666-.8112558.0815808l-.7863316.0188383-1.2605418-.6400292c-1.0982904-.545999-1.2980092-.6275794-1.4851845-.5961267-.44276971.0689666-.64867882.5899017-.37418764.9412871.08112558.1066442.61772734.414127 1.39151554.8095791l1.2543513.6400293 1.1481388.031452c.6926625.018839 1.1606824.056517 1.1732257.094194.012545.037678-.4742098.3137078-1.0733663.6149654l-1.0921003.546h-1.5350328c-1.65997925 0-1.8034966.025064-1.94701395.3451605-.11859322.257355-.08731588.4518047.10604971.671482l.18114789.2067359h1.77221935 1.7660289l1.2043402-.6149655c1.1856066-.6023517 1.491375-.6965459 1.179416-.3639993-.0873157.0878054-.8299895.9727398-1.6474355 1.9641547l-1.4913751 1.807219-.636461 1.600156c-.3870571.979128-.6366242 1.688124-.6366242 1.82622 0 .163161.049849.269805.1809851.407902.2120994.213289.4492857.238518.72394.06896.1622511-.100425.2683008-.326322.8050654-1.681735l.6177274-1.562472.7550544-.922447c.4181714-.508322.773788-.922449.8050655-.922449.024924-.0064.043658.03145.043658.08158 0 .213289.4805632 1.016642.8050656 1.349189.4618292.470643.8487234.652643 1.3791347.652643.5304115 0 .9173056-.182 1.3791351-.652643.3245023-.332547.8049028-1.1359.8049028-1.349189 0-.05013.01873-.0878.04985-.08158.02492 0 .380704.414127.798712.922449l.755054.922447.617728 1.562479c.536602 1.355413.642814 1.581315.804902 1.681735.274655.169386.511678.144322.72394-.06896.130974-.138097.180985-.244741.180985-.407902 0-.138096-.249566-.847092-.636461-1.826057l-.636461-1.600158-1.491538-1.807383c-.817448-.9914189-1.5601215-1.8763533-1.6474375-1.9641587-.0873159-.1004193-.1247835-.1819996-.0936691-.2070635.0374676-.0250638.6364616.2447412 1.3292866.5899017l1.266732.6338043 1.709827-.018839 1.709828-.018839.180985-.2070635c.193366-.219677.224643-.4141268.10605-.6714818-.143518-.3200966-.287035-.3451605-1.946851-.3451605h-1.535196l-1.0921-.5459989c-.598994-.3012577-1.085747-.5772878-1.073366-.6149656.01254-.037678.480563-.075355 1.173225-.094194l1.148139-.031452 1.254351-.6400296c1.503919-.765513 1.653627-.9162239 1.460097-1.4243812-.06239-.169386-.349425-.3513855-.561688-.3513855-.06858 0-.686473.2824188-1.379134.6275792l-1.247999.6338043-.786168-.0188389c-.461667-.0124507-.798713-.0439028-.811256-.0815808-.01238-.037678.355616-.5019324.817445-1.0417065.82999-.9663508.83618-.9789647 1.503919-2.3155399.755054-1.51857505.792522-1.66928583.46802-1.96415476-.2121-.18822465-.418172-.21345233-.686473-.07535538-.143517.07535538-.311959.35138547-.83618 1.39931684-.580259 1.1549033-.711233 1.3681918-1.197987 1.9392546l-.549145.6400301-.2559201-.2383524c-.1435173-.1317081-.3306926-.288644-.4181715-.3451605-.1122399-.0753555-.1684414-.1757746-.1933656-.3639993-.0436579-.3074827-.224643-.5772879-.4118182-.6023517-.1185932-.0188389-.1311366.0062254-.1311366.2824189v.3073189h-.6239176-.6240807v-.3074826c0-.276194-.012542-.301258-.1309739-.2824191-.1871752.0250638-.3681602.294869-.4118181.6023518-.0249242.1882247-.0811257.288644-.1933657.3639993-.0873159.0565165-.2746541.2132884-.4181713.3451604l-.2559203.2385163-.5491453-.6400295c-.4867535-.5710628-.6177274-.7843513-1.1981499-1.9390908-.5242212-1.04793136-.6926626-1.32412525-.8361798-1.39931681-.2744914-.14432196-.4867536-.1192581-.6926628.08780541z" fill="#b3b600" stroke-width=".001634"/></svg>

<?xml version="1.0" encoding="UTF-8" standalone="no"?>
<svg
   xmlns:dc="http://purl.org/dc/elements/1.1/"
   xmlns:cc="http://creativecommons.org/ns#"
   xmlns:rdf="http://www.w3.org/1999/02/22-rdf-syntax-ns#"
   xmlns:svg="http://www.w3.org/2000/svg"
   xmlns="http://www.w3.org/2000/svg"
   xmlns:sodipodi="http://sodipodi.sourceforge.net/DTD/sodipodi-0.dtd"
   xmlns:inkscape="http://www.inkscape.org/namespaces/inkscape"
   enable-background="new 0 0 1000 1000"
   height="16"
   viewBox="0 0 16 16"
   width="16"
   version="1.1"
   id="svg835"
   sodipodi:docname="icon_spider.svg"
   inkscape:version="1.0.1 (c497b03c, 2020-09-10)">
  <metadata
     id="metadata841">
    <rdf:RDF>
      <cc:Work
         rdf:about="">
        <dc:format>image/svg+xml</dc:format>
        <dc:type
           rdf:resource="http://purl.org/dc/dcmitype/StillImage" />
        <dc:title></dc:title>
      </cc:Work>
    </rdf:RDF>
  </metadata>
  <defs
     id="defs839" />
  <sodipodi:namedview
     pagecolor="#ffffff"
     bordercolor="#666666"
     borderopacity="1"
     objecttolerance="10"
     gridtolerance="10"
     guidetolerance="10"
     inkscape:pageopacity="0"
     inkscape:pageshadow="2"
     inkscape:window-width="1720"
     inkscape:window-height="1088"
     id="namedview837"
     showgrid="false"
     inkscape:zoom="52.119894"
     inkscape:cx="7.9051798"
     inkscape:cy="7.952814"
     inkscape:window-x="0"
     inkscape:window-y="23"
     inkscape:window-maximized="0"
     inkscape:current-layer="svg835" />
  <path
     d="M 2.6718526,0.1790743 C 2.4970581,0.36107395 2.4597532,0.4614932 2.4908677,0.71868443 2.4970577,0.78142597 2.7966362,1.4340692 3.1586061,2.155679 3.8076107,3.4609654 3.8199916,3.4798043 4.649981,4.4461551 5.1118104,4.9857653 5.4799708,5.4501839 5.4674271,5.4878616 5.4548841,5.5255396 5.1180009,5.5568282 4.6561713,5.5694424 L 3.8698397,5.5882807 2.6092979,4.9482515 C 1.5110075,4.4022525 1.3112887,4.3206721 1.1241134,4.3521248 0.68134369,4.4210914 0.47543458,4.9420265 0.74992576,5.2934119 0.83105134,5.4000561 1.3676531,5.7075389 2.1414413,6.102991 l 1.2543513,0.6400293 1.1481388,0.031452 c 0.6926625,0.018839 1.1606824,0.056517 1.1732257,0.094194 0.012545,0.037678 -0.4742098,0.3137078 -1.0733663,0.6149654 l -1.0921003,0.546 H 2.0166577 c -1.65997925,0 -1.8034966,0.025064 -1.94701395,0.3451605 -0.11859322,0.257355 -0.08731588,0.4518047 0.10604971,0.671482 L 0.35684135,9.2530101 H 2.1290607 3.8950896 L 5.0994298,8.6380446 C 6.2850364,8.0356929 6.5908048,7.9414987 6.2788458,8.2740453 6.1915301,8.3618507 5.4488563,9.2467851 4.6314103,10.2382 l -1.4913751,1.807219 -0.636461,1.600156 C 2.1165171,14.624703 1.86695,15.333699 1.86695,15.471795 c 0,0.163161 0.049849,0.269805 0.1809851,0.407902 0.2120994,0.213289 0.4492857,0.238518 0.72394,0.06896 0.1622511,-0.100425 0.2683008,-0.326322 0.8050654,-1.681735 L 4.1946679,12.70445 4.9497223,11.782003 c 0.4181714,-0.508322 0.773788,-0.922449 0.8050655,-0.922449 0.024924,-0.0064 0.043658,0.03145 0.043658,0.08158 0,0.213289 0.4805632,1.016642 0.8050656,1.349189 0.4618292,0.470643 0.8487234,0.652643 1.3791347,0.652643 0.5304115,0 0.9173056,-0.182 1.3791351,-0.652643 0.3245023,-0.332547 0.8049028,-1.1359 0.8049028,-1.349189 0,-0.05013 0.01873,-0.0878 0.04985,-0.08158 0.02492,0 0.380704,0.414127 0.798712,0.922449 l 0.755054,0.922447 0.617728,1.562479 c 0.536602,1.355413 0.642814,1.581315 0.804902,1.681735 0.274655,0.169386 0.511678,0.144322 0.72394,-0.06896 0.130974,-0.138097 0.180985,-0.244741 0.180985,-0.407902 0,-0.138096 -0.249566,-0.847092 -0.636461,-1.826057 L 12.824933,12.045587 11.333395,10.238204 C 10.515947,9.2467851 9.7732735,8.3618507 9.6859575,8.2740453 9.5986416,8.173626 9.561174,8.0920457 9.5922884,8.0669818 9.629756,8.041918 10.22875,8.311723 10.921575,8.6568835 l 1.266732,0.6338043 1.709827,-0.018839 1.709828,-0.018839 0.180985,-0.2070635 C 15.982313,8.8262693 16.01359,8.6318195 15.894997,8.3744645 15.751479,8.0543679 15.607962,8.029304 13.948146,8.029304 H 12.41295 L 11.32085,7.4833051 C 10.721856,7.1820474 10.235103,6.9060173 10.247484,6.8683395 c 0.01254,-0.037678 0.480563,-0.075355 1.173225,-0.094194 l 1.148139,-0.031452 1.254351,-0.6400296 c 1.503919,-0.765513 1.653627,-0.9162239 1.460097,-1.4243812 -0.06239,-0.169386 -0.349425,-0.3513855 -0.561688,-0.3513855 -0.06858,0 -0.686473,0.2824188 -1.379134,0.6275792 L 12.094475,5.5882807 11.308307,5.5694418 C 10.84664,5.5569911 10.509594,5.525539 10.497051,5.487861 c -0.01238,-0.037678 0.355616,-0.5019324 0.817445,-1.0417065 0.82999,-0.9663508 0.83618,-0.9789647 1.503919,-2.3155399 0.755054,-1.51857505 0.792522,-1.66928583 0.46802,-1.96415476 -0.2121,-0.18822465 -0.418172,-0.21345233 -0.686473,-0.07535538 -0.143517,0.07535538 -0.311959,0.35138547 -0.83618,1.39931684 -0.580259,1.1549033 -0.711233,1.3681918 -1.197987,1.9392546 L 10.01665,4.069706 9.7607299,3.8313536 C 9.6172126,3.6996455 9.4300373,3.5427096 9.3425584,3.4861931 9.2303185,3.4108376 9.174117,3.3104185 9.1491928,3.1221938 9.1055349,2.8147111 8.9245498,2.5449059 8.7373746,2.5198421 8.6187814,2.5010032 8.606238,2.5260675 8.606238,2.802261 V 3.1095799 H 7.9823204 7.3582397 V 2.8020973 c 0,-0.276194 -0.012542,-0.301258 -0.1309739,-0.2824191 C 7.0400906,2.544742 6.8591056,2.8145472 6.8154477,3.12203 6.7905235,3.3102547 6.734322,3.410674 6.622082,3.4860293 6.5347661,3.5425458 6.3474279,3.6993177 6.2039107,3.8311897 L 5.9479904,4.069706 5.3988451,3.4296765 C 4.9120916,2.8586137 4.7811177,2.6453252 4.2006952,1.4905857 3.676474,0.44265434 3.5080326,0.16646045 3.3645154,0.09126889 3.090024,-0.05305307 2.8777618,-0.02798921 2.6718526,0.1790743 Z"
     fill="#b3b600"
     id="path833"
     style="stroke-width:0.00163359" />
</svg>
